X: 737
T: Ey Şûh-i Cefâ-pîşe
C: Hacı Ârif Bey
O: Turkey
F: http://compmusic.upf.edu/node/140
N: ussak--sarki--senginsemai--ey_suh-i_cefa--haci_arif_bey
N: makam= ussak
N: form= sarki
N: usul= senginsemai = 6/4
M: 6/4
L: 1/16
K: C _2/4B   
Q: 1/4=60
%%MIDI tuningsystem comma53
G4 c2BA d2cB BABA A6z2  | B3/2A/Bc B2c2 cB2A AGBA A8  | 
w:  Ey  şû *  *  *  *  *  hi  *  ce *  fâ   |  pî *  *  *  *  *  şe  *  *  bı *  *  *  rak   | 
z4 A4 f3e e3d d2c2 d2{f}ed  | d8 dccB BAAG d6z2  | 
w:  vaz_ ı  *  ce *  fâ  |  yı   SAZ  | 
d3/2c/de c2BA BABd cBBA A6B2  | G2c4cB B3/2A/G2 A2B2 AGG^F G4  | 
w:  Vaz *  *  *  geç  *  *  bu  *  *  *  si *  *  *  tem  |  den  *  *  *  *  *  *  ta kın  et   | 
^FGA6 G2AB c2dB A6G2  | B2cd e2dc c3d BABA A3f egf2  | 
w:  va   |  va *  *  rı  *  *  ve *  fâ *  *  *  yı   SAZ  | 
f4 f4 f2c2 d2e2 f6z2  | e3/2f/ef g2ag gffe eddc d6z2  | 
w:  Gül dür  gü *  ze *  lim   |  biz *  *  *  *  *  *  le *  *  *  *  *  *  *  ri   | 
d2e^f g4 d2ef g2=fe d2cB A4  | g3f f3e e2{.F}ed dced d6z2  | 
w:  ağ *  *  *  *  *  *  *  *  *  lat   |  ağ *  lat  *  hü *  se *  mâ *  *  *  yı    | 
d3/2c/de c2BA BABd cBBA A6B2  | G2c4cB B3/2A/G2 A2G2 AGG^F G4  | 
w:  Sâ *  *  *  yen *  *  de  *  *  *  se *  *  *  nin   |  tâ  *  *  *  *  *  *  sü re lim   | 
^FGA6 G2AB c2dB A6G2  | B2cd e2dc c3B BABA A6z2  | 
w:  zev   |  zev  *  *  kû  *  *  sâ *  fa *  *  *  yı    | 
c4 d4 d4 d4 d6c2  | B3A B4 c4 B2A2 A6B2  | \
w:  Sen  git  gi de  bir   |  â *  *  fe ti  *  dev  | 
G8 B4 c4 d4 e2d2  | d8 z2G2 B2c2 d6z2  | 
w:  ran  o la cak  |  sın   SAZ  | 
c4 d4 d4 d4 d2e2 d2c2  | d2e2 f2g2 e4 e2d2 d6c2  | \
w:  Can lar  ya ka cak   |  a *  *  *  te şi  *  su  | 
d6c2 d4 e4 d2c2 B2d2  | 
w:  zan  *  o la cak  | 
c8 z2G2 A2B2 c6z2  | c4 c4 c4 c4 c6B2  | \
w:  sın    |  Bil mem  ne  za man   | 
B8 B4 B4 _7/8B3A G4  | ^c2d2 e2d2 d2c2 _7/8B2A2 B2A2 G2^F2  | 
w:  der di me  der  |  man  *  *  *  o *  la *  cak  | 
G8 ^F2G2 A2F2 G6z2  | A4 B4 c4 d2B2 A6B2  | \
w:  sın   SAZ  |  Ça ğın  ge çe *  cek   | 
G8 e2f2 e2d2 d8  | B2c4BA B3A d2cB B3/2A/Bc B3/2A/GA  | 
w:  son ra  *  pe *  şi  |  man  *  *  *  *  *  o la *  cak  | 
G2A14 z8  | |


